svg_80x80/sentry.svg

<svg viewBox="0 0 80 80" xmlns="http://www.w3.org/2000/svg">
<rect width="100%" height="100%" fill="#352E56"/>
<path d="M72.1665 66.313C72.7127 65.3587 73 64.2783 73 63.1788C73 62.0793 72.7127 60.9989 72.1665 60.0446L45.2786 12.1248C44.7595 11.1787 43.9957 10.3895 43.0671 9.83975C42.1384 9.29003 41.0791 9 40 9C38.9209 9 37.8616 9.29003 36.9329 9.83975C36.0043 10.3895 35.2405 11.1787 34.7214 12.1248L26.0199 27.5894L28.2468 28.9091C34.7517 32.7938 40.1149 38.3278 43.794 44.9511C47.1421 50.9066 49.0752 57.5526 49.4438 64.3747H43.3404C42.9599 58.7119 41.3259 53.2044 38.5566 48.2502C35.4105 42.5065 30.8007 37.6975 25.1951 34.3114L23.0095 33.033L14.7616 47.5079L16.9473 48.8276C19.7034 50.4794 22.0461 52.7385 23.797 55.4328C25.5479 58.127 26.6608 61.1853 27.0509 64.3747H13.1121C12.9377 64.3723 12.7667 64.3256 12.6152 64.239C12.4638 64.1525 12.3368 64.0289 12.2461 63.8799C12.1513 63.7246 12.1012 63.5463 12.1012 63.3644C12.1012 63.1825 12.1513 63.0042 12.2461 62.8489L16.1225 55.9207C14.8282 54.7849 13.3311 53.9035 11.71 53.3227L7.83347 60.2508C7.28731 61.2051 7 62.2855 7 63.385C7 64.4845 7.28731 65.5649 7.83347 66.5192C8.35132 67.467 9.11461 68.2581 10.0433 68.8096C10.972 69.361 12.032 69.6524 13.1121 69.6534H32.2883V66.8491C32.279 62.2895 31.1157 57.8063 28.9067 53.8175C27.1378 50.5952 24.7063 47.7842 21.7723 45.5697L24.824 40.1261C28.654 42.8831 31.835 46.4441 34.144 50.5596C36.881 55.5059 38.301 61.0725 38.268 66.7254V69.3234H54.5162V66.8491C54.5619 58.1872 52.3595 49.6616 48.1241 42.1056C44.3945 35.492 39.169 29.8428 32.8656 25.61L39.134 14.8878C39.2196 14.7331 39.345 14.6041 39.4973 14.5143C39.6496 14.4246 39.8232 14.3772 40 14.3772C40.1768 14.3772 40.3504 14.4246 40.5027 14.5143C40.655 14.6041 40.7804 14.7331 40.866 14.8878L67.7539 62.8489C67.8487 63.0042 67.8988 63.1825 67.8988 63.3644C67.8988 63.5463 67.8487 63.7246 67.7539 63.8799C67.6663 64.0316 67.54 64.1574 67.3878 64.2444C67.2357 64.3313 67.0632 64.3763 66.8879 64.3747H60.6196V69.6121H66.9292C68.0092 69.6112 69.0692 69.3197 69.9979 68.7683C70.9266 68.2169 71.6899 67.4258 72.2078 66.4779" fill="white"/>
</svg>

<svg xmlns="http://www.w3.org/2000/svg" viewBox="0 0 80 80">
  <rect width="100%" height="100%" fill="#352E56"/>
  <path fill="#fff" d="M72.17 66.31a6.3 6.3 0 0 0 0-6.27l-26.9-47.92a6.02 6.02 0 0 0-10.55 0l-8.7 15.47 2.23 1.32a43.01 43.01 0 0 1 15.54 16.04 44.54 44.54 0 0 1 5.65 19.42h-6.1a38.31 38.31 0 0 0-4.78-16.12A37.12 37.12 0 0 0 25.2 34.31L23 33.03l-8.25 14.48 2.19 1.32a21.11 21.11 0 0 1 10.1 15.54H13.11a1.03 1.03 0 0 1-1-1c0-.19.04-.37.14-.52l3.87-6.93a13.7 13.7 0 0 0-4.41-2.6l-3.88 6.93a6.31 6.31 0 0 0 2.21 8.56c.93.55 2 .84 3.07.84H32.3v-2.8c-.01-4.56-1.17-9.04-3.38-13.03a26.02 26.02 0 0 0-7.14-8.25l3.05-5.44a32.37 32.37 0 0 1 9.32 10.43 33 33 0 0 1 4.13 16.17v2.6h16.25v-2.48a50.06 50.06 0 0 0-6.4-24.74 48.66 48.66 0 0 0-15.25-16.5l6.26-10.72a.99.99 0 0 1 1.74 0l26.88 47.96a.99.99 0 0 1 0 1.03.99.99 0 0 1-.86.5h-6.27v5.23h6.3a6.02 6.02 0 0 0 5.29-3.13"/>
</svg>
